.local/share/icons/Gruvbox-Plus-Dark/actions/16/view-coverflow.svg

<svg width="16" height="16" version="1.1" xmlns="http://www.w3.org/2000/svg">
  <defs>
    <style id="current-color-scheme" type="text/css">.ColorScheme-Text { color:#ebdbb2; } .ColorScheme-Highlight { color:#458588; }</style>
  </defs>
  <path class="ColorScheme-Text" d="m1 3v10h1v-10h-1zm13 0v10h1v-10h-1zm-11 1v8h1v-8h-1zm9 0v8h1v-8h-1zm-7 1v6h6v-6h-6z" fill="currentColor"/>
</svg>

<svg xmlns="http://www.w3.org/2000/svg" width="16" height="16" viewBox="0 0 16 16">
 <defs>
  <style id="current-color-scheme" type="text/css">
   .ColorScheme-Text { color:#ebdbb2; } .ColorScheme-Highlight { color:#458588; }
  </style>
 </defs>
 <path style="fill:currentColor" class="ColorScheme-Text" d="M 1 3 L 1 13 L 2 13 L 2 3 L 1 3 z M 14 3 L 14 13 L 15 13 L 15 3 L 14 3 z M 3 4 L 3 12 L 4 12 L 4 4 L 3 4 z M 12 4 L 12 12 L 13 12 L 13 4 L 12 4 z M 5 5 L 5 11 L 11 11 L 11 5 L 5 5 z"/>
</svg>
